X:1
T:Radetzky March
C:Johann Strauss I
M:2/4
L:1/8
Q:1/4=132
K:D
|: D | D3/2D/ AA | B4 | B3/2B/ GG | A4 | A3/2A/ FF | d4 | d3/2d/ BA | G4 | D3/2D/ AA | B4 | B3/2B/ GG | A4 | A3/2A/ FF | G3/2E/ EG | F3/2D/ D2 | D4 :|]
